lib/brands/icons/jb-pycharm.svg

<svg xmlns="http://www.w3.org/2000/svg" fill="none" aria-hidden="true" viewBox="0 0 48 48"><g id="jb-pycharm-Icon"><g id="Group"><path id="vector" fill="url(#paint0_linear_94_18407)" d="M30.4456 13.0287L39.7714 20.8459L36.4342 27.6573L30.7656 26.103H25.9199L30.4456 13.0287Z"/><path id="vector_2" fill="url(#paint1_linear_94_18407)" d="M21.0286 18.1028L19.2 27.6571L19.0171 30.9485L14.4914 32.9142L8 33.5999L9.96571 12.8913L21.6686 7.99991L28.8914 12.7542L21.0286 18.1028Z"/><path id="vector_3" fill="url(#paint2_linear_94_18407)" d="M21.0286 18.1029L21.8971 36.5715L18.9714 40.0001L8 33.6001L17.0057 20.1601L21.0286 18.1029Z"/><path id="vector_4" fill="url(#paint3_linear_94_18407)" d="M33.0969 16.7313H21.9883L31.8169 7.99991L33.0969 16.7313Z"/><path id="vector_5" fill="url(#paint4_linear_94_18407)" d="M40.0001 36.6171L30.2172 39.9542L17.2344 36.2971L21.0287 18.1028L22.5372 16.7313L30.4458 15.9999L29.7144 23.9542L36.0229 21.5313L40.0001 36.6171Z"/><g id="Group_2"><path id="vector_6" fill="black" d="M14.126 14.1254H33.8745V33.874H14.126V14.1254Z"/><g id="Union"><path fill="white" d="M27.3833 16.5939C24.869 16.5939 23.1318 18.5139 23.1318 20.8453C23.1318 23.1767 24.9147 25.051 27.3376 25.0053C28.8918 25.0053 29.8518 24.4567 30.6747 23.5424L29.5318 22.3996C28.8918 22.9939 28.2976 23.3596 27.3833 23.3596C25.9661 23.3596 25.0061 22.2624 25.0061 20.8453C25.0061 19.4282 26.0118 18.2853 27.3833 18.2853C28.2061 18.2853 28.8461 18.6053 29.4861 19.1996L30.629 17.8739C29.8518 17.0967 28.9376 16.5939 27.3833 16.5939Z"/><path fill="white" fill-rule="evenodd" d="M15.9541 16.7311H19.2455C21.2112 16.7311 22.3998 17.8739 22.3998 19.5654C22.3998 21.4397 20.937 22.4911 19.1084 22.4911H17.737V24.9139H15.9541L15.9541 16.7311ZM19.1541 20.8454C20.0684 20.8454 20.5712 20.2511 20.5712 19.5654C20.5712 18.7425 20.0227 18.3311 19.1084 18.3311H17.737V20.8454H19.1541Z" clip-rule="evenodd"/><path fill="white" d="M16 30.171H23.4057V31.4053H16V30.171Z"/></g></g></g></g><defs><linearGradient id="paint0_linear_94_18407" x1="19.4276" x2="38.4712" y1="20.364" y2="20.364" gradientUnits="userSpaceOnUse"><stop stop-color="#21D789"/><stop offset="1" stop-color="#07C3F2"/></linearGradient><linearGradient id="paint1_linear_94_18407" x1="-3.22697" x2="35.9863" y1="35.0084" y2="6.06116" gradientUnits="userSpaceOnUse"><stop offset="0.011" stop-color="#FCF84A"/><stop offset="0.112" stop-color="#A7EB62"/><stop offset="0.206" stop-color="#5FE077"/><stop offset="0.273" stop-color="#32DA84"/><stop offset="0.306" stop-color="#21D789"/><stop offset="0.577" stop-color="#21D789"/><stop offset="0.597" stop-color="#21D789"/><stop offset="0.686" stop-color="#20D68C"/><stop offset="0.763" stop-color="#1ED497"/><stop offset="0.835" stop-color="#19D1A9"/><stop offset="0.904" stop-color="#13CCC2"/><stop offset="0.971" stop-color="#0BC6E1"/><stop offset="1" stop-color="#07C3F2"/></linearGradient><linearGradient id="paint2_linear_94_18407" x1="12.2651" x2="18.8055" y1="43.4991" y2="22.9761" gradientUnits="userSpaceOnUse"><stop stop-color="#21D789"/><stop offset="0.164" stop-color="#24D788"/><stop offset="0.305" stop-color="#2FD886"/><stop offset="0.437" stop-color="#41DA82"/><stop offset="0.564" stop-color="#5ADC7D"/><stop offset="0.688" stop-color="#7AE077"/><stop offset="0.809" stop-color="#A1E36E"/><stop offset="0.925" stop-color="#CFE865"/><stop offset="1" stop-color="#F1EB5E"/></linearGradient><linearGradient id="paint3_linear_94_18407" x1="20.9254" x2="35.1581" y1="25.6561" y2="6.52059" gradientUnits="userSpaceOnUse"><stop stop-color="#21D789"/><stop offset="0.061" stop-color="#24D788"/><stop offset="0.113" stop-color="#2FD886"/><stop offset="0.162" stop-color="#41DA82"/><stop offset="0.209" stop-color="#5ADD7D"/><stop offset="0.255" stop-color="#79E077"/><stop offset="0.258" stop-color="#7CE076"/><stop offset="0.499" stop-color="#8CE173"/><stop offset="0.925" stop-color="#B2E56B"/></linearGradient><linearGradient id="paint4_linear_94_18407" x1="42.6922" x2="14.0152" y1="28.0913" y2="27.8257" gradientUnits="userSpaceOnUse"><stop offset="0.387" stop-color="#FCF84A"/><stop offset="0.536" stop-color="#ECF451"/><stop offset="0.826" stop-color="#C2E964"/><stop offset="0.925" stop-color="#B2E56B"/></linearGradient></defs></svg>

<svg xmlns="http://www.w3.org/2000/svg" fill="none" aria-hidden="true" viewBox="0 0 48 48"><path fill="url(#a)" d="m30.446 13.029 9.325 7.817-3.337 6.811-5.668-1.554H25.92l4.526-13.074Z"/><path fill="url(#b)" d="M21.029 18.103 19.2 27.657l-.183 3.291-4.526 1.966L8 33.6l1.966-20.71L21.669 8l7.222 4.754-7.862 5.349Z"/><path fill="url(#c)" d="m21.029 18.103.868 18.468-2.926 3.43L8 33.6l9.006-13.44 4.023-2.058Z"/><path fill="url(#d)" d="M33.097 16.731H21.988L31.817 8l1.28 8.731Z"/><path fill="url(#e)" d="m40 36.617-9.783 3.337-12.983-3.657 3.795-18.194 1.508-1.372L30.446 16l-.732 7.954 6.309-2.423L40 36.617Z"/><path fill="#000" d="M14.126 14.125h19.748v19.749H14.126V14.125Z"/><g fill="#fff"><path d="M27.383 16.594c-2.514 0-4.251 1.92-4.251 4.251 0 2.332 1.783 4.206 4.206 4.16 1.554 0 2.514-.548 3.337-1.463L29.532 22.4c-.64.594-1.234.96-2.149.96-1.417 0-2.377-1.098-2.377-2.515s1.006-2.56 2.377-2.56c.823 0 1.463.32 2.103.915l1.143-1.326c-.777-.777-1.691-1.28-3.246-1.28Z"/><path fill-rule="evenodd" d="M15.954 16.731h3.291c1.966 0 3.155 1.143 3.155 2.834 0 1.875-1.463 2.926-3.292 2.926h-1.371v2.423h-1.783V16.73Zm3.2 4.114c.914 0 1.417-.594 1.417-1.28 0-.823-.548-1.234-1.463-1.234h-1.371v2.514h1.417Z" clip-rule="evenodd"/><path d="M16 30.171h7.406v1.234H16v-1.234Z"/></g><defs><linearGradient id="a" x1="19.428" x2="38.471" y1="20.364" y2="20.364" gradientUnits="userSpaceOnUse"><stop stop-color="#21D789"/><stop offset="1" stop-color="#07C3F2"/></linearGradient><linearGradient id="b" x1="-3.227" x2="35.986" y1="35.008" y2="6.061" gradientUnits="userSpaceOnUse"><stop offset=".011" stop-color="#FCF84A"/><stop offset=".112" stop-color="#A7EB62"/><stop offset=".206" stop-color="#5FE077"/><stop offset=".273" stop-color="#32DA84"/><stop offset=".306" stop-color="#21D789"/><stop offset=".577" stop-color="#21D789"/><stop offset=".597" stop-color="#21D789"/><stop offset=".686" stop-color="#20D68C"/><stop offset=".763" stop-color="#1ED497"/><stop offset=".835" stop-color="#19D1A9"/><stop offset=".904" stop-color="#13CCC2"/><stop offset=".971" stop-color="#0BC6E1"/><stop offset="1" stop-color="#07C3F2"/></linearGradient><linearGradient id="c" x1="12.265" x2="18.805" y1="43.499" y2="22.976" gradientUnits="userSpaceOnUse"><stop stop-color="#21D789"/><stop offset=".164" stop-color="#24D788"/><stop offset=".305" stop-color="#2FD886"/><stop offset=".437" stop-color="#41DA82"/><stop offset=".564" stop-color="#5ADC7D"/><stop offset=".688" stop-color="#7AE077"/><stop offset=".809" stop-color="#A1E36E"/><stop offset=".925" stop-color="#CFE865"/><stop offset="1" stop-color="#F1EB5E"/></linearGradient><linearGradient id="d" x1="20.925" x2="35.158" y1="25.656" y2="6.521" gradientUnits="userSpaceOnUse"><stop stop-color="#21D789"/><stop offset=".061" stop-color="#24D788"/><stop offset=".113" stop-color="#2FD886"/><stop offset=".162" stop-color="#41DA82"/><stop offset=".209" stop-color="#5ADD7D"/><stop offset=".255" stop-color="#79E077"/><stop offset=".258" stop-color="#7CE076"/><stop offset=".499" stop-color="#8CE173"/><stop offset=".925" stop-color="#B2E56B"/></linearGradient><linearGradient id="e" x1="42.692" x2="14.015" y1="28.091" y2="27.826" gradientUnits="userSpaceOnUse"><stop offset=".387" stop-color="#FCF84A"/><stop offset=".536" stop-color="#ECF451"/><stop offset=".826" stop-color="#C2E964"/><stop offset=".925" stop-color="#B2E56B"/></linearGradient></defs></svg>
